assets/icons/password.svg

<svg width="38" height="40" viewBox="0 0 38 40" fill="none" xmlns="http://www.w3.org/2000/svg">
<path d="M23.75 3.01036C20.8107 1.31335 17.1893 1.31335 14.25 3.01036L6.66154 7.39156C3.72223 9.08857 1.91154 12.2248 1.91154 15.6188V24.3812C1.91154 27.7752 3.72223 30.9114 6.66154 32.6084L14.25 36.9896C17.1893 38.6867 20.8107 38.6866 23.75 36.9896L31.3385 32.6084C34.2778 30.9114 36.0885 27.7752 36.0885 24.3812V15.6188C36.0885 12.2248 34.2778 9.08857 31.3385 7.39156L23.75 3.01036Z" fill="#FFC5C8" stroke="#FFEDEE" stroke-width="3"/>
<g style="mix-blend-mode:overlay">
<path fill-rule="evenodd" clip-rule="evenodd" d="M14.6 16.6667C14.6 14.2397 16.573 12.2667 19 12.2667C21.427 12.2667 23.4 14.2397 23.4 16.6667H14.6ZM13.4 16.6667C13.4 13.577 15.9103 11.0667 19 11.0667C22.0897 11.0667 24.6 13.577 24.6 16.6667L24.8333 16.6667C25.2917 16.6667 25.6667 17.0417 25.6667 17.5V27.5C25.6667 27.9583 25.2917 28.3333 24.8333 28.3333H13.1667C12.7083 28.3333 12.3333 27.9583 12.3333 27.5V17.5C12.3333 17.0417 12.7083 16.6667 13.1667 16.6667L13.4 16.6667Z" fill="black"/>
<path fill-rule="evenodd" clip-rule="evenodd" d="M19.6 19.1667V18.5667H18.4V19.1667V21.0515L17.0659 19.7174L16.6416 19.2931L15.7931 20.1416L16.2174 20.5659L17.5515 21.9H15.6667H15.0667V23.1H15.6667H17.5514L16.2174 24.434L15.7931 24.8583L16.6416 25.7068L17.0659 25.2825L18.4 23.9484V25.8333V26.4333H19.6V25.8333V23.9485L20.934 25.2825L21.3583 25.7068L22.2068 24.8583L21.7825 24.434L20.4485 23.1H22.3333H22.9333V21.9H22.3333H20.4484L21.7825 20.5659L22.2068 20.1416L21.3583 19.2931L20.934 19.7174L19.6 21.0514V19.1667Z" fill="white"/>
</g>
</svg>

<?xml version="1.0" encoding="utf-8"?>
<!-- Generator: Adobe Illustrator 26.0.0, SVG Export Plug-In . SVG Version: 6.00 Build 0)  -->
<svg version="1.1" id="Capa_1" xmlns="http://www.w3.org/2000/svg" xmlns:xlink="http://www.w3.org/1999/xlink" x="0px" y="0px"
	 viewBox="0 0 38 40" style="enable-background:new 0 0 38 40;" xml:space="preserve">
<style type="text/css">
	.st0{fill:#134AD1;stroke:#01D6EB;stroke-width:3;}
	.st1{fill-rule:evenodd;clip-rule:evenodd;fill:#FFFFFF;}
	.st2{fill-rule:evenodd;clip-rule:evenodd;fill:#134AD1;}
</style>
<path class="st0" d="M23.8,3c-2.9-1.7-6.6-1.7-9.5,0L6.7,7.4c-2.9,1.7-4.8,4.8-4.8,8.2v8.8c0,3.4,1.8,6.5,4.8,8.2l7.6,4.4
	c2.9,1.7,6.6,1.7,9.5,0l7.6-4.4c2.9-1.7,4.8-4.8,4.8-8.2v-8.8c0-3.4-1.8-6.5-4.8-8.2L23.8,3z"/>
<g>
	<path class="st1" d="M14.6,16.7c0-2.4,2-4.4,4.4-4.4s4.4,2,4.4,4.4H14.6z M13.4,16.7c0-3.1,2.5-5.6,5.6-5.6s5.6,2.5,5.6,5.6h0.2
		c0.5,0,0.8,0.4,0.8,0.8v10c0,0.5-0.4,0.8-0.8,0.8H13.2c-0.5,0-0.8-0.4-0.8-0.8v-10c0-0.5,0.4-0.8,0.8-0.8H13.4z"/>
	<path class="st2" d="M19.6,19.2v-0.6h-1.2v0.6v1.9l-1.3-1.3l-0.4-0.4l-0.8,0.8l0.4,0.4l1.3,1.3h-1.9h-0.6v1.2h0.6h1.9l-1.3,1.3
		l-0.4,0.4l0.8,0.8l0.4-0.4l1.3-1.3v1.9v0.6h1.2v-0.6v-1.9l1.3,1.3l0.4,0.4l0.8-0.8l-0.4-0.4l-1.3-1.3h1.9h0.6v-1.2h-0.6h-1.9
		l1.3-1.3l0.4-0.4l-0.8-0.8l-0.4,0.4l-1.3,1.3V19.2z"/>
</g>
</svg>
